X:111
T:Mutual Love THO4.111
M:C|
L:1/8
Z:vmp. Peter Dunk 2010/11.from a transcription by Fynn Titford-Mock 2007
B:Thompson's Compleat Collection of 200 Favourite Country Dances Volume IV.
Q:1/2=80
K:F
fage fage|fafa c2c2|dfAf Bfdf|cBAG A2F2|fage fage|fafa c2c2|
dfAf Bfdf|BCAG F4::AcFc GcAc|BdGd BdGd|AcFc GcAc|
GFED C2C2|AcFc GcAc|BdGd BdGd|cfed cBAG|F2F2F4:|
